svg/black/iq.svg

<?xml version="1.0" encoding="UTF-8"?>
<svg width="32px" height="32px" viewBox="0 0 32 32" version="1.1" xmlns="http://www.w3.org/2000/svg" xmlns:xlink="http://www.w3.org/1999/xlink">
    <!-- Generator: Sketch 52.5 (67469) - http://www.bohemiancoding.com/sketch -->
    <title>svg/black/iq</title>
    <desc>Created with Sketch.</desc>
    <g id="black/iq" stroke="none" stroke-width="1" fill="none" fill-rule="evenodd">
        <path d="M16,32 C7.163444,32 0,24.836556 0,16 C0,7.163444 7.163444,0 16,0 C24.836556,0 32,7.163444 32,16 C32,24.836556 24.836556,32 16,32 Z M11.83,10.12 C11.8364497,8.22394427 12.5495527,6.39840042 13.83,5 C14.18,4.65 14.22,4.58 14.22,4.3 C14.22,4.02 14.22,4 14.01,4 C13.7503966,4.02874901 13.4931084,4.07552867 13.24,4.14 C10.255291,4.84507126 7.64967049,6.65721061 5.95,9.21 C5.12939117,10.420524 4.55200868,11.779071 4.25,13.21 C3.99961632,14.5279342 3.9390027,15.8749036 4.07,17.21 C4.43741216,20.1725268 5.92615783,22.8816144 8.23,24.78 C9.46,25.78 10.84,26.58 10.84,26.22 C10.7592921,26.0649217 10.6508319,25.9259571 10.52,25.81 C9.26754549,24.4295518 8.68600903,22.5679036 8.93,20.72 C9.11037476,18.4195284 10.3721589,16.3412956 12.33,15.12 C12.5739073,14.9462531 12.8314057,14.792423 13.1,14.66 C13.25,14.66 13.16,14.36 12.79,13.66 C12.1569499,12.5880245 11.8252644,11.3649344 11.83,10.12 Z M27.34,13.24 C26.624041,9.75280156 24.3967161,6.76349711 21.26,5.08 C20.7,4.77 20.42,4.7 20.42,4.89 C20.4728817,5.04990917 20.5541843,5.19896391 20.66,5.33 C21.2798244,6.21054547 21.6275323,7.25366896 21.66,8.33 C21.7874148,9.46507496 21.4235042,10.600476 20.66,11.45 C20.2568014,11.8774519 19.5858436,11.9041124 19.15,11.51 C18.75,11.22 18.75,11.02 19,10.65 C19.5297496,9.87090048 19.7928823,8.94116516 19.75,8 C19.8286831,7.23364339 19.5566885,6.47279382 19.01,5.93 C18.5094002,5.41090767 17.7611627,5.21420604 17.07,5.42 C16.085222,5.81676719 15.3644577,6.68018279 15.15,7.72 C14.920682,8.4600016 14.7862733,9.22613092 14.75,10 C14.7573906,11.184996 15.048876,12.3509374 15.6,13.4 C15.9845005,14.0029874 16.4601477,14.5427288 17.01,15 C17.1190824,15.0717318 17.2168292,15.1593669 17.3,15.26 C17.2033393,15.3394868 17.0908366,15.3974428 16.97,15.43 C15.4086645,16.1688286 14.2115915,17.5065217 13.65,19.14 C13.2839684,20.0785388 13.1203952,21.0838323 13.17,22.09 C13.1291117,23.0488415 13.491803,23.9809581 14.17,24.66 C14.9391429,25.3257635 15.9710539,25.6021682 16.97,25.41 C18.2909725,25.3111835 19.5262839,24.7185197 20.43,23.75 C20.84,23.31 20.92,23.26 21,23.36 C21.08,23.46 21.06,23.52 20.91,23.77 C19.960433,25.3918743 18.436551,26.5981322 16.64,27.15 C16.29,27.24 16.14,27.31 16.14,27.39 C16.14,27.65 18.33,27.29 19.66,26.82 C23.0958776,25.5646292 25.779406,22.8222837 26.96,19.36 C27.3912213,18.1695003 27.5782732,16.9043497 27.51,15.64 C27.5556039,14.836026 27.4984763,14.0295184 27.34,13.24 Z" id="Combined-Shape" fill="#000000" fill-rule="nonzero"></path>
    </g>
</svg>

<svg width="32" height="32" viewBox="0 0 32 32" xmlns="http://www.w3.org/2000/svg"><path d="M16 32C7.163 32 0 24.837 0 16S7.163 0 16 0s16 7.163 16 16-7.163 16-16 16zm-4.17-21.88a7.62 7.62 0 0 1 2-5.12c.35-.35.39-.42.39-.7 0-.28 0-.3-.21-.3a5.63 5.63 0 0 0-.77.14 12.1 12.1 0 0 0-7.29 5.07 11.28 11.28 0 0 0-1.7 4 14.07 14.07 0 0 0-.18 4 11.67 11.67 0 0 0 4.16 7.57c1.23 1 2.61 1.8 2.61 1.44a1.43 1.43 0 0 0-.32-.41 6.34 6.34 0 0 1-1.59-5.09 7.27 7.27 0 0 1 3.4-5.6 5.58 5.58 0 0 1 .77-.46c.15 0 .06-.3-.31-1a6.91 6.91 0 0 1-.96-3.54zm15.51 3.12a12 12 0 0 0-6.08-8.16c-.56-.31-.84-.38-.84-.19a1.4 1.4 0 0 0 .24.44 5.5 5.5 0 0 1 1 3 4 4 0 0 1-1 3.12 1.08 1.08 0 0 1-1.51.06c-.4-.29-.4-.49-.15-.86A4.36 4.36 0 0 0 19.75 8a2.55 2.55 0 0 0-.74-2.07 1.93 1.93 0 0 0-1.94-.51 3.17 3.17 0 0 0-1.92 2.3 9.15 9.15 0 0 0-.4 2.28 7.41 7.41 0 0 0 .85 3.4 6.92 6.92 0 0 0 1.41 1.6c.11.072.207.16.29.26a.88.88 0 0 1-.33.17 6.41 6.41 0 0 0-3.32 3.71 7.15 7.15 0 0 0-.48 2.95 3.43 3.43 0 0 0 1 2.57 3.32 3.32 0 0 0 2.8.75 5.27 5.27 0 0 0 3.46-1.66c.41-.44.49-.49.57-.39.08.1.06.16-.09.41a7.5 7.5 0 0 1-4.27 3.38c-.35.09-.5.16-.5.24 0 .26 2.19-.1 3.52-.57a12.1 12.1 0 0 0 7.3-7.46 9.43 9.43 0 0 0 .55-3.72 9.47 9.47 0 0 0-.17-2.4z"/></svg>
